app/assets/icons/boxes.svg

<svg width="367" height="397" viewBox="0 0 367 397" fill="none" xmlns="http://www.w3.org/2000/svg">
<path d="M257.624 0.223984C257.624 0.223984 257.111 0.223984 256.123 0.223984C254.68 0.13831 253.234 0.13831 251.791 0.223984C246.211 0.550658 240.729 1.83602 235.585 4.02373C227.432 7.4414 220.336 12.9697 215.029 20.0397C211.756 24.4543 209.322 29.4322 207.847 34.7258C204.522 47.3356 206.318 60.7488 212.844 72.0395C214.622 75.1654 216.793 78.0513 219.303 80.6269C221.835 83.3557 224.785 85.6644 228.043 87.4665C231.385 89.3475 235.17 90.2988 239.005 90.2214C242.959 90.1739 246.75 88.6412 249.625 85.9276C251.016 84.4711 252.105 82.755 252.832 80.8773C253.559 78.9997 253.909 76.9972 253.862 74.9843C253.833 70.8022 252.505 66.7325 250.062 63.338C245.142 56.4035 237.162 51.7487 228.67 49.2409C219.863 46.7676 210.564 46.6366 201.691 48.8609C197.163 50.0391 192.797 51.7749 188.696 54.0286C184.556 56.3651 180.795 59.3184 177.544 62.7871C176.765 63.68 175.872 64.497 175.169 65.4849L173.022 68.3727C171.717 70.4077 170.549 72.5276 169.526 74.7183C167.494 79.1662 166.106 83.881 165.404 88.7204C164.025 98.3885 165.339 108.25 169.203 117.219C172.897 125.982 179.329 133.314 187.537 138.117C191.517 140.391 195.96 141.736 200.532 142.05C205.016 142.301 209.475 141.231 213.357 138.972C217.209 136.843 220.254 133.505 222.02 129.473C223.686 125.499 223.802 121.045 222.343 116.991C220.842 113.079 218.386 109.604 215.2 106.883C212.109 104.212 208.545 102.144 204.693 100.785C197.181 98.416 189.142 98.2774 181.553 100.386C174.451 102.31 167.928 105.943 162.554 110.968C157.659 115.658 153.93 121.429 151.668 127.82C147.71 138.908 147.892 151.053 152.181 162.018C155.525 170.203 160.908 177.398 167.817 182.917C172.169 186.407 177.016 189.231 182.199 191.295C183.985 191.96 185.371 192.454 186.321 192.72L187.727 193.176C187.727 193.176 187.233 193.081 186.283 192.815C184.88 192.439 183.497 191.989 182.142 191.466C176.891 189.493 171.98 186.711 167.589 183.221C160.563 177.705 155.074 170.476 151.649 162.227C147.285 151.159 147.062 138.887 151.022 127.668C153.288 121.181 157.058 115.321 162.022 110.569C167.472 105.443 174.092 101.726 181.306 99.7397C189.055 97.5778 197.265 97.7097 204.94 100.12C208.906 101.503 212.574 103.623 215.751 106.37C219.062 109.181 221.611 112.781 223.16 116.839C224.722 121.075 224.655 125.74 222.97 129.929C221.096 134.119 217.917 137.592 213.908 139.827C209.883 142.173 205.261 143.295 200.608 143.057C195.924 142.73 191.376 141.34 187.309 138.991C178.913 134.121 172.321 126.662 168.52 117.732C164.572 108.598 163.218 98.554 164.606 88.7014C165.331 83.7641 166.751 78.9541 168.823 74.4143C169.867 72.1771 171.061 70.0126 172.395 67.9357L174.599 64.9909C175.302 63.984 176.214 63.091 177.012 62.2171C180.34 58.6827 184.183 55.6722 188.411 53.2877C192.608 50.9909 197.076 49.2293 201.71 48.044C210.752 45.7781 220.229 45.9156 229.202 48.443C237.865 51.0268 245.978 55.7575 251.088 62.9391C253.657 66.4752 255.052 70.7277 255.078 75.0983C255.171 79.3995 253.551 83.5613 250.575 86.6686C247.536 89.5219 243.535 91.1291 239.366 91.1713C235.377 91.2618 231.438 90.2705 227.967 88.3025C224.632 86.4624 221.616 84.095 219.037 81.2919C216.494 78.6585 214.292 75.716 212.483 72.5335C205.841 61.033 204.037 47.3659 207.467 34.5358C208.988 29.1809 211.48 24.1513 214.82 19.6977C220.225 12.574 227.442 7.03017 235.718 3.64376C240.905 1.49829 246.43 0.289004 252.038 0.0719897C253.493 -0.0239966 254.953 -0.0239966 256.408 0.0719897L257.624 0.223984Z" fill="#263238"/>
<path d="M321.061 190.326H54.6787V395.779H321.061V190.326Z" fill="#FF9446"/>
<path d="M54.6787 190.326L103.886 236.227H365.746L321.061 190.326H54.6787Z" fill="#FF9446"/>
<path d="M54.6787 190.326L321.137 189.851H321.346L321.498 189.984L365.727 235.41L366.183 235.885L367 236.721H365.822L103.962 236.512H103.848L54.6787 190.326L104.076 235.923H103.867L365.727 235.733L365.385 236.569L364.91 236.094L320.7 190.668L321.042 190.82L54.6787 190.326Z" fill="#263238"/>
<path d="M134.702 285.073C133.259 285.125 131.894 285.742 130.901 286.79C129.908 287.839 129.366 289.235 129.393 290.679C129.419 292.123 130.011 293.498 131.041 294.51C132.071 295.522 133.457 296.089 134.901 296.089C136.345 296.089 137.731 295.522 138.762 294.51C139.792 293.498 140.384 292.123 140.41 290.679C140.436 289.235 139.894 287.839 138.902 286.79C137.909 285.742 136.544 285.125 135.101 285.073" fill="#263238"/>
<path d="M197.644 285.073C196.207 285.128 194.849 285.744 193.862 286.79C192.874 287.835 192.336 289.226 192.364 290.664C192.391 292.102 192.982 293.472 194.008 294.479C195.035 295.486 196.415 296.05 197.853 296.05C199.292 296.05 200.672 295.486 201.699 294.479C202.725 293.472 203.316 292.102 203.343 290.664C203.371 289.226 202.833 287.835 201.845 286.79C200.858 285.744 199.5 285.128 198.062 285.073" fill="#263238"/>
<path d="M198.006 334.242C196.907 330.045 195.123 326.059 192.724 322.444C190.056 318.578 186.63 315.294 182.655 312.792C177.858 309.609 172.264 307.838 166.51 307.68C160.756 307.522 155.073 308.984 150.11 311.899C146.01 314.188 142.412 317.276 139.527 320.981C136.93 324.462 134.932 328.354 133.619 332.494C133.633 332.185 133.684 331.879 133.771 331.582C133.953 330.726 134.187 329.882 134.474 329.055C135.515 326.004 137.035 323.137 138.976 320.563C141.84 316.685 145.484 313.449 149.673 311.063C154.764 308.024 160.616 306.496 166.543 306.657C172.471 306.819 178.23 308.663 183.149 311.975C187.193 314.575 190.649 317.992 193.294 322.007C195.099 324.686 196.465 327.637 197.341 330.746C197.574 331.59 197.758 332.446 197.892 333.311C197.957 333.617 197.995 333.929 198.006 334.242Z" fill="#263238"/>
<path opacity="0.5" d="M55.2866 192.587L102.404 252.319H321.061V236.227H103.886L55.2866 192.587Z" fill="black"/>
<path d="M268.529 395.323C268.263 395.323 268.035 359.586 268.035 315.528C268.035 271.47 268.263 235.733 268.529 235.733C268.795 235.733 269.042 271.451 269.042 315.528C269.042 359.605 268.814 395.323 268.529 395.323Z" fill="#263238"/>
<path d="M310.364 348.738H286.882V375.279H310.364V348.738Z" fill="#F5F5F5"/>
<path d="M54.6786 190.326L0 236.227H54.6786V190.326Z" fill="#FF9446"/>
<g opacity="0.4">
<path d="M54.6786 190.326L0 236.227H54.6786V190.326Z" fill="black"/>
</g>
<path d="M326.266 395.779H325.468H323.17L314.335 395.874L281.79 396.026L174.466 396.273L67.1037 396.14L34.5777 395.988L25.7433 395.893L34.5777 395.798L67.1037 395.646L174.466 395.494L281.79 395.646L314.335 395.798L323.17 395.893H325.468L326.266 395.779Z" fill="#263238"/>
</svg>

<svg width="367" height="397" fill="none" xmlns="http://www.w3.org/2000/svg"><path d="M257.624.224h-1.501a36.54 36.54 0 0 0-4.332 0 48.677 48.677 0 0 0-16.206 3.8 49.754 49.754 0 0 0-20.556 16.016 44.889 44.889 0 0 0-7.182 14.686 49.397 49.397 0 0 0 4.997 37.314 42.199 42.199 0 0 0 6.459 8.587 35.096 35.096 0 0 0 8.74 6.84 21.466 21.466 0 0 0 10.962 2.754 15.747 15.747 0 0 0 10.62-4.293 15.32 15.32 0 0 0 4.237-10.944 20.177 20.177 0 0 0-3.8-11.646c-4.92-6.934-12.9-11.59-21.392-14.097a52.534 52.534 0 0 0-26.979-.38 56.554 56.554 0 0 0-12.995 5.168 46.832 46.832 0 0 0-11.152 8.758c-.779.893-1.672 1.71-2.375 2.698l-2.147 2.888a54.375 54.375 0 0 0-3.496 6.345 51.483 51.483 0 0 0-4.122 14.002 53.083 53.083 0 0 0 3.799 28.499 44.028 44.028 0 0 0 18.334 20.898 30.395 30.395 0 0 0 12.995 3.933 22.948 22.948 0 0 0 12.825-3.078 20.04 20.04 0 0 0 8.663-9.499 17.21 17.21 0 0 0 .323-12.482 25.134 25.134 0 0 0-7.143-10.108 32.719 32.719 0 0 0-10.507-6.098 40.708 40.708 0 0 0-23.14-.399 45.074 45.074 0 0 0-18.999 10.582 43.388 43.388 0 0 0-10.886 16.852 48.822 48.822 0 0 0 .513 34.198 51.846 51.846 0 0 0 15.636 20.899 56.26 56.26 0 0 0 14.382 8.378c1.786.665 3.172 1.159 4.122 1.425l1.406.456s-.494-.095-1.444-.361a40.915 40.915 0 0 1-4.141-1.349 53.805 53.805 0 0 1-14.553-8.245 52.081 52.081 0 0 1-15.94-20.994 49.395 49.395 0 0 1-.627-34.559 43.558 43.558 0 0 1 11-17.099 45.95 45.95 0 0 1 19.284-10.83 41.585 41.585 0 0 1 23.634.381 33.283 33.283 0 0 1 10.811 6.25 25.806 25.806 0 0 1 7.409 10.469 18.201 18.201 0 0 1-.19 13.09 21.28 21.28 0 0 1-9.062 9.898 23.98 23.98 0 0 1-13.3 3.23 30.89 30.89 0 0 1-13.299-4.066 44.91 44.91 0 0 1-18.789-21.259 54.134 54.134 0 0 1-3.914-29.03 52.931 52.931 0 0 1 4.217-14.288 55.12 55.12 0 0 1 3.572-6.478l2.204-2.945c.703-1.007 1.615-1.9 2.413-2.774a48.136 48.136 0 0 1 11.399-8.93 57.26 57.26 0 0 1 13.299-5.243 53.465 53.465 0 0 1 27.492.399c8.663 2.584 16.776 7.315 21.886 14.496a20.898 20.898 0 0 1 3.99 12.16 16.22 16.22 0 0 1-4.503 11.57 16.622 16.622 0 0 1-11.209 4.502c-3.989.09-7.928-.9-11.399-2.869a35.323 35.323 0 0 1-8.93-7.01 43.687 43.687 0 0 1-6.554-8.758 50.103 50.103 0 0 1-5.016-37.998 45.41 45.41 0 0 1 7.353-14.838 50.003 50.003 0 0 1 20.898-16.054 47.502 47.502 0 0 1 16.32-3.572 33.195 33.195 0 0 1 4.37 0l1.216.152Z" fill="#263238"/><path d="M321.061 190.326H54.679v205.453H321.06V190.326Z" fill="#FF9446"/><path d="m54.679 190.326 49.207 45.901h261.86l-44.685-45.901H54.679Z" fill="#FF9446"/><path d="m54.679 190.326 266.458-.475h.209l.152.133 44.229 45.426.456.475.817.836h-1.178l-261.86-.209h-.114l-49.17-46.186 49.398 45.597h-.209l261.86-.19-.342.836-.475-.475-44.21-45.426.342.152-266.363-.494ZM134.702 285.073a5.51 5.51 0 1 0 .399 0M197.644 285.073a5.488 5.488 0 0 0-5.28 5.591 5.491 5.491 0 1 0 5.698-5.591M198.006 334.242a39.371 39.371 0 0 0-5.282-11.798 34.682 34.682 0 0 0-10.069-9.652 30.726 30.726 0 0 0-32.545-.893 35.095 35.095 0 0 0-10.583 9.082 38.946 38.946 0 0 0-5.908 11.513c.014-.309.065-.615.152-.912.182-.856.416-1.7.703-2.527a30.423 30.423 0 0 1 4.502-8.492 34.565 34.565 0 0 1 10.697-9.5 31.26 31.26 0 0 1 33.476.912c4.044 2.6 7.5 6.017 10.145 10.032a30.393 30.393 0 0 1 4.047 8.739c.233.844.417 1.7.551 2.565.065.306.103.618.114.931Z" fill="#263238"/><path opacity=".5" d="m55.287 192.587 47.117 59.732h218.657v-16.092H103.886l-48.6-43.64Z" fill="#000"/><path d="M268.529 395.323c-.266 0-.494-35.737-.494-79.795s.228-79.795.494-79.795.513 35.718.513 79.795-.228 79.795-.513 79.795Z" fill="#263238"/><path d="M310.364 348.738h-23.482v26.541h23.482v-26.541Z" fill="#F5F5F5"/><path d="M54.679 190.326 0 236.227h54.679v-45.901Z" fill="#FF9446"/><path d="M54.679 190.326 0 236.227h54.679v-45.901Z" fill="#000" opacity=".4"/><path d="M326.266 395.779h-3.096l-8.835.095-32.545.152-107.324.247-107.362-.133-32.526-.152-8.835-.095 8.835-.095 32.526-.152 107.362-.152 107.324.152 32.545.152 8.835.095h2.298l.798-.114Z" fill="#263238"/></svg>
